!!!SOCIAL_FUNCTION:	southern dance songs
!!!PDT:	1913
!!!OTL: No_119.krn
!!!REG: Great_Lakes
!!!LANG: Non-Tone
!!!LING_GROUP: Algonquin
**kern	**kern
*staff2	*staff1
*clefF4	*clefF4
*k[b-]	*k[b-]
*M2/4	*M2/4
4r	8.d\L
.	16d\Jk
=1	=1
12GG^/	4d\
12r	.
12GG/	.
12GG^/	16A\LK
.	8A\
12r	.
12GG/	.
.	16B-\Jk
=2	=2
2r	4A\
.	8.G\L
.	16F\Jk
=3	=3
2r	4G\
.	[4G\
=4	=4
2r	2G\]
=5||	=5||
*M3/4	*M3/4
2.r	4D\
.	4E\
.	8.D/L
.	16C/Jk
=6||	=6||
*M2/4	*M2/4
2r	4D\
.	[4D\
=7	=7
2r	4D\]
.	16D\LK
.	[8.D\J
=8	=8
2r	4D\]
.	8.A\L
.	16A\Jk
=9	=9
2r	4c\
.	4G\
=10	=10
2r	4B-\
.	8.G\L
.	16F\Jk
=11	=11
2r	4G\
.	4G\
=12	=12
2r	16G\LK
.	8.G\J
.	4G\
=13	=13
2r	16G\LL
.	16G\
.	16G\
.	16G\JJ
.	4d\
=14||	=14||
*M3/4	*M3/4
2.r	4.d\
.	8c#\
.	8..d\L
.	32G\Jkk
=15	=15
2.r	2G\
.	4A\
=16||	=16||
*M2/4	*M2/4
2r	2A\
=17||	=17||
*M3/4	*M3/4
2.r	16A\LK
.	[8.A\J
.	4A\]
.	8.c\L
.	16c\Jk
=18||	=18||
*M2/4	*M2/4
2r	4d\
.	16A\LK
.	8A\
.	16B-\Jk
=19	=19
2r	4A\
.	8.G\L
.	16F\Jk
=20	=20
2r	4G\
.	[4G\
=21	=21
2r	2G\]
=22||	=22||
*M3/4	*M3/4
2.r	4D\
.	4E\
.	8.D/L
.	16C/Jk
=23||	=23||
*M2/4	*M2/4
2r	4D\
.	[4D\
=24	=24
2r	4D\]
.	4r
==	==
*-	*-
